build/img/logo-md.svg

<svg width="80" height="18" viewBox="0 0 80 18" fill="none" xmlns="http://www.w3.org/2000/svg">
<path d="M0.624 4.232C0.624 2.872 0.952 1.832 1.608 1.112C2.264 0.375999 3.232 0.0079999 4.512 0.0079999C5.792 0.0079999 6.76 0.375999 7.416 1.112C8.072 1.832 8.4 2.872 8.4 4.232V4.76H5.904V4.064C5.904 2.96 5.464 2.408 4.584 2.408C3.704 2.408 3.264 2.96 3.264 4.064C3.264 4.688 3.44 5.28 3.792 5.84C4.144 6.384 4.568 6.88 5.064 7.328C5.576 7.776 6.088 8.248 6.6 8.744C7.112 9.224 7.544 9.832 7.896 10.568C8.248 11.288 8.424 12.088 8.424 12.968C8.424 14.328 8.088 15.376 7.416 16.112C6.744 16.832 5.768 17.192 4.488 17.192C3.208 17.192 2.232 16.832 1.56 16.112C0.888 15.376 0.552 14.328 0.552 12.968V11.936H3.048V13.136C3.048 14.224 3.504 14.768 4.416 14.768C5.328 14.768 5.784 14.224 5.784 13.136C5.784 12.512 5.608 11.928 5.256 11.384C4.904 10.824 4.472 10.32 3.96 9.872C3.464 9.424 2.96 8.96 2.448 8.48C1.936 7.984 1.504 7.376 1.152 6.656C0.8 5.92 0.624 5.112 0.624 4.232ZM10.2966 0.199999H12.9366V13.16C12.9366 14.248 13.3926 14.792 14.3046 14.792C15.2166 14.792 15.6726 14.248 15.6726 13.16V0.199999H18.1686V12.992C18.1686 14.352 17.8326 15.4 17.1606 16.136C16.4886 16.856 15.5126 17.216 14.2326 17.216C12.9526 17.216 11.9766 16.856 11.3046 16.136C10.6326 15.4 10.2966 14.352 10.2966 12.992V0.199999ZM24.3471 0.199999C26.9711 0.199999 28.2831 1.584 28.2831 4.352V6.536C28.2831 9.304 26.9711 10.688 24.3471 10.688H23.0991V17H20.4591V0.199999H24.3471ZM24.3471 2.6H23.0991V8.288H24.3471C24.7791 8.288 25.0991 8.168 25.3071 7.928C25.5311 7.688 25.6431 7.28 25.6431 6.704V4.184C25.6431 3.608 25.5311 3.2 25.3071 2.96C25.0991 2.72 24.7791 2.6 24.3471 2.6ZM32.6259 2.6V7.28H36.2499V9.68H32.6259V14.6H37.1859V17H29.9859V0.199999H37.1859V2.6H32.6259ZM47.5099 17H44.8219C44.6619 16.52 44.5819 15.832 44.5819 14.936V12.296C44.5819 11.528 44.4459 10.984 44.1739 10.664C43.9019 10.328 43.4619 10.16 42.8539 10.16H41.9419V17H39.3019V0.199999H43.2859C44.6459 0.199999 45.6379 0.519999 46.2619 1.16C46.8859 1.784 47.1979 2.752 47.1979 4.064V5.384C47.1979 7.112 46.6219 8.248 45.4699 8.792C46.6379 9.288 47.2219 10.48 47.2219 12.368V14.96C47.2219 15.872 47.3179 16.552 47.5099 17ZM43.2139 2.6H41.9419V7.76H42.9739C43.5019 7.76 43.8939 7.624 44.1499 7.352C44.4219 7.08 44.5579 6.624 44.5579 5.984V4.328C44.5579 3.176 44.1099 2.6 43.2139 2.6ZM53.3981 10.04V7.64H57.0941V12.968C57.0941 14.328 56.7581 15.376 56.0861 16.112C55.4141 16.832 54.4381 17.192 53.1581 17.192C51.8781 17.192 50.9021 16.832 50.2301 16.112C49.5581 15.376 49.2221 14.328 49.2221 12.968V4.232C49.2221 2.872 49.5581 1.832 50.2301 1.112C50.9021 0.375999 51.8781 0.0079999 53.1581 0.0079999C54.4381 0.0079999 55.4141 0.375999 56.0861 1.112C56.7581 1.832 57.0941 2.872 57.0941 4.232V5.864H54.5981V4.064C54.5981 2.96 54.1421 2.408 53.2301 2.408C52.3181 2.408 51.8621 2.96 51.8621 4.064V13.136C51.8621 14.224 52.3181 14.768 53.2301 14.768C54.1421 14.768 54.5981 14.224 54.5981 13.136V10.04H53.3981ZM61.3901 17V11.432L58.0541 0.199999H60.8141L62.8301 7.856L64.8461 0.199999H67.3661L64.0301 11.432V17H61.3901ZM72.5618 0.199999L74.5058 12.128L76.3058 0.199999H79.9778V17H77.4818V4.952L75.6578 17H73.1618L71.1938 5.12V17H68.8898V0.199999H72.5618Z" fill="white"/>
</svg>

<svg width="80" height="18" fill="none" xmlns="http://www.w3.org/2000/svg"><path d="M.624 4.232c0-1.36.328-2.4.984-3.12C2.264.376 3.232.008 4.512.008c1.28 0 2.248.368 2.904 1.104.656.72.984 1.76.984 3.12v.528H5.904v-.696c0-1.104-.44-1.656-1.32-1.656-.88 0-1.32.552-1.32 1.656 0 .624.176 1.216.528 1.776.352.544.776 1.04 1.272 1.488.512.448 1.024.92 1.536 1.416.512.48.944 1.088 1.296 1.824.352.72.528 1.52.528 2.4 0 1.36-.336 2.408-1.008 3.144-.672.72-1.648 1.08-2.928 1.08s-2.256-.36-2.928-1.08C.888 15.376.552 14.328.552 12.968v-1.032h2.496v1.2c0 1.088.456 1.632 1.368 1.632.912 0 1.368-.544 1.368-1.632 0-.624-.176-1.208-.528-1.752A6.837 6.837 0 003.96 9.872c-.496-.448-1-.912-1.512-1.392a6.458 6.458 0 01-1.296-1.824 5.545 5.545 0 01-.528-2.424zM10.297.2h2.64v12.96c0 1.088.456 1.632 1.368 1.632.912 0 1.368-.544 1.368-1.632V.2h2.496v12.792c0 1.36-.336 2.408-1.008 3.144-.672.72-1.648 1.08-2.928 1.08s-2.256-.36-2.928-1.08c-.672-.736-1.008-1.784-1.008-3.144V.2zm14.05 0c2.624 0 3.936 1.384 3.936 4.152v2.184c0 2.768-1.312 4.152-3.936 4.152H23.1V17h-2.64V.2h3.888zm0 2.4H23.1v5.688h1.248c.432 0 .752-.12.96-.36.224-.24.336-.648.336-1.224v-2.52c0-.576-.112-.984-.336-1.224-.208-.24-.528-.36-.96-.36zm8.279 0v4.68h3.624v2.4h-3.624v4.92h4.56V17h-7.2V.2h7.2v2.4h-4.56zM47.51 17h-2.688c-.16-.48-.24-1.168-.24-2.064v-2.64c0-.768-.136-1.312-.408-1.632-.272-.336-.712-.504-1.32-.504h-.912V17h-2.64V.2h3.984c1.36 0 2.352.32 2.976.96.624.624.936 1.592.936 2.904v1.32c0 1.728-.576 2.864-1.728 3.408 1.168.496 1.752 1.688 1.752 3.576v2.592c0 .912.096 1.592.288 2.04zM43.214 2.6h-1.272v5.16h1.032c.528 0 .92-.136 1.176-.408.272-.272.408-.728.408-1.368V4.328c0-1.152-.448-1.728-1.344-1.728zm10.184 7.44v-2.4h3.696v5.328c0 1.36-.336 2.408-1.008 3.144-.672.72-1.648 1.08-2.928 1.08s-2.256-.36-2.928-1.08c-.672-.736-1.008-1.784-1.008-3.144V4.232c0-1.36.336-2.4 1.008-3.12.672-.736 1.648-1.104 2.928-1.104s2.256.368 2.928 1.104c.672.72 1.008 1.76 1.008 3.12v1.632h-2.496v-1.8c0-1.104-.456-1.656-1.368-1.656-.912 0-1.368.552-1.368 1.656v9.072c0 1.088.456 1.632 1.368 1.632.912 0 1.368-.544 1.368-1.632V10.04h-1.2zM61.39 17v-5.568L58.054.2h2.76l2.016 7.656L64.846.2h2.52L64.03 11.432V17h-2.64zM72.562.2l1.944 11.928L76.306.2h3.672V17h-2.496V4.952L75.658 17h-2.496L71.194 5.12V17H68.89V.2h3.672z" fill="#fff"/></svg>
